X: 103
T:Plaka
M:4/4
L:1/8
F:http://blackrosetheband.googlepages.com/ABCTUNES.ABC May 2009
C:Trad.
R:R
K:Am
"Am"E2 A2 c2 e2|^dfe=d cB A2|E2 A2 c2 e2|"E"^dfed e2 e2|
"Am"E2 A2 c2 e2|^dfe=d cB A2|"E"Bcdf edcB|"Am"AE^F^G A2 A2:|
|:"Dm"a2 g2 "Am"f2 e2|"E"^dfe=d "Am"cB A2|"Dm"a2 g2 "Am"f2 e2|"E"^de^f^g "Am"aefg|
"Dm"a2 g2 "Am"f2 e2|"E"^dfe=d "Am"cB A2|"E"Bcdf edcB|"Am"AE^F^G A2 A2:|
|:"Am"e^dcd cB A2|"Dm"f2 f2 f2 f2|"E"Bcdf edcB|"Am"ABcd e2 e2|
e^dcd cB A2|"Dm"f2 f2 f2 f2|"E"Bcdf edcB|"Am"AE^F^G A2 A2:|
|:"Am"e2 e2 a2 e2|"Dm"fe d2 "Am"ed c2|"E"Bcdf edcB|"Am"ABcd e2 e2|
e2 e2 a2 e2|"Dm"fe d2 "Am"ed c2|"E"Bcdf edcB|"Am"AE^F^G A2 A2:||

